X:193
T: O Traurigkeit!
N: A0550
O: Europa, Mitteleuropa, Deutschland
N: Corners Gsgb 1625.
R: Romanze, Ballade, Lied, religioeses Lied
M: 4/4
L: 1/4
K: A
e2 | =cBB2 | zGAA | G2z
e | ee=fe | d2=c2 |
Bcde | d=cB2 |
ABcd | B2A2 | z2

@@@ Tune index: 506
